X: 23
I: linebreak $
T: Verçepe
N: Drone: D/A
K: D dorian
M: 6/8
L: 1/8
P: A
"^Saltarello"d2d B2B | c2c A2A | d2d cB2 | A3 A3 |: d2d B2B | c2c A2A | 
d2d cB2 | A3 A3 :: 
M: 6/4
P: B
"^Bassadanza"D6 D6 | F6 F6 | A6 A4A2 | 
M: 3/4
G2F4 | 
M: 6/4
E6 E6 | F4G2 F2E4 | D6 D6 :: 
M: 4/4
P: C
"^Quadernaria"d2dd d3d | AABc d2z2 :| 
M: 2/4
f2 e2 | 
M: 6/8
P: D
"^Saltarello"d2d d2d | c2d cB2 | A3 A3 | G3 D3 | F2E D3 |: 
M: 6/4
P: E
"^Bassadanza"d6 d6 | c4d2 c2B4 | A6 A6 | 
M: 6/8
"^Saltarello"D2D F2F | A2A G2G | D3 F3 | E3 D3 :: 
M: 4/4
P: F
"^Quadernaria"dd zd d3d | DDFF D4 | dd zd d3d | DDFF D4 :| 

